X:1
T:Coulter's Candy
T:Coulter's Candy
T:Robert Coultart
C:Robert Coultart
%%score { 1 | 2 }
L:1/8
Q:1/4=120
M:4/4
K:C
V:1 treble nm="Accordion" snm="Acc."
V:2 bass 
V:1
|:"^Moderato""^Roland FR4XVUPG6-01 Accordion Solo" [Gc]2 ee dB G2 | [Gc]2 ee dB G2 | %2
w: ||
 [Gc]2 ee dB G2 | [Gc]2 z2 [Gc]2 z2 | C2 E2 G2 G2 | AGFA G4 | C3 E G2 G2 | F2 E2 D4 | C3 E G2 G2 | %9
w: ||Chorus:Al- ly bal- ly,|al- ly bal- ly bee.|Sit- tin' on his|mam- mie's knee.|Greet- in for a|
 AGFA G3 G | C2 E2 G2 E2 | D4 C4 | C2 E2 G2 GG | AGFA G4 | C3 E G2 G2 | F2 E2 D4 | C3 E G2 G2 | %17
w: we- e ba- w bee. Tae|buy some Coult- er's|Can- dy.|Verse:Mam- mie gi'e me a|thr- i- f- ty doon.|Here's auld Coult- er|com- in' roon,|wi' a bas- ket|
 A2 A2 G4 | C2 E2 G2 E2 | D4 C4 :| %20
w: on his croon.|Sel- lin' Coult- er's|Can- dy.|
V:2
|:"_C" .C,,2"C" .[CEG]2"_G" .G,,2"G" .[G,B,D]2 |"_C" .C,,2"C" .[CEG]2"_G" .G,,2"G" .[G,B,D]2 | %2
"_C" .C,,2"C" .[CEG]2"_G" .G,,2"G" .[G,B,D]2 |"C/C" .[C,,CEG]2 z2 .[C,,CEG]2 z2 | %4
"_C" .C,,2"C" .[CEG]2"_G" .G,,2"C" .[CEG]2 |"_F" .F,,2"F" .[F,A,C]2"C/C" .[C,,CEG]2 z2 | %6
"_C" .C,,2"C" .[CEG]2"_G" .G,,2"C" .[CEG]2 |"_F" .F,,2"F" .[F,A,C]2"G/G" .[G,,G,B,D]2 z2 | %8
"_C" .C,,2"C" .[CEG]2"_G" .G,,2"C" .[CEG]2 |"_F" .F,,2"F" .[F,A,C]2"C/C" .[C,,CEG]2 z2 | %10
"_C" .C,,2"C" .[CEG]2"_G" .G,,2"C" .[CEG]2 |"G/G" .[G,,G,B,D]2 z2"C/C" .[C,,CEG]2 z2 | %12
"_C" .C,,2"C" .[CEG]2"_G" .G,,2"C" .[CEG]2 |"_F" .F,,2"F" .[F,A,C]2"C/C" .[C,,CEG]2 z2 | %14
"_C" .C,,2"C" .[CEG]2"_G" .G,,2"C" .[CEG]2 |"_F" .F,,2"F" .[F,A,C]2"G/G" .[G,,G,B,D]2 z2 | %16
"_C" .C,,2"C" .[CEG]2"_G" .G,,2"C" .[CEG]2 |"_F" .F,,2"F" .[F,A,C]2"C/C" .[C,,CEG]2 z2 | %18
"_Verse2:\nAlly bally, ally bally bee. Fin ye grow up ye'll ging tae sea.\nMakin' pennies for your mammie and me. Tae buy some Coulter's Candy.\n\nVerse3:\nPeer wee Jeannie, she's gettin' awfie thin. She's a rickle o' bains covered ower wi' skin.\nNoo she's gettin' a wee double chin, fae sookin' Coulter's Candy.\n\nVerse4:\nOor wee Annie, she's greetin' ana, but peer wee mammie she's thinkin' braw.\nShe'll gi'e them a penny atween thae twa, tae buy mair Coulter's Candy.\n\nVerse5:\nWullie grat baith lang and sair, 'til he got a penny tae wear.\nNoo he's rumblin' doon the stair, tae buy some Coulter's Candy.\n""_C" .C,,2"C" .[CEG]2"_G" .G,,2"C" .[CEG]2 | %19
"G/G" .[G,,G,B,D]2 z2"C/C" .[C,,CEG]2 z2 :| %20

